images/svg/plus-catalog-items.svg

<svg width="58" height="58" fill="none" xmlns="http://www.w3.org/2000/svg"><g opacity=".3" filter="url(#a)"><circle cx="29" cy="25" r="24" stroke="#000" stroke-width="2" shape-rendering="crispEdges"/></g><g opacity=".3" clip-path="url(#b)"><path d="M37 24h-7v-7h-2v7h-7v2h7v7h2v-7h7v-2Z" fill="#000"/></g><defs><clipPath id="b"><path fill="#fff" transform="translate(21 17)" d="M0 0h16v16H0z"/></clipPath><filter id="a" x="0" y="0" width="58" height="58" filterUnits="userSpaceOnUse" color-interpolation-filters="sRGB"><feFlood flood-opacity="0" result="BackgroundImageFix"/><feColorMatrix in="SourceAlpha" values="0 0 0 0 0 0 0 0 0 0 0 0 0 0 0 0 0 0 127 0" result="hardAlpha"/><feOffset dy="4"/><feGaussianBlur stdDeviation="2"/><feComposite in2="hardAlpha" operator="out"/><feColorMatrix values="0 0 0 0 0 0 0 0 0 0 0 0 0 0 0 0 0 0 0.25 0"/><feBlend in2="BackgroundImageFix" result="effect1_dropShadow_28528_601"/><feBlend in="SourceGraphic" in2="effect1_dropShadow_28528_601" result="shape"/></filter></defs></svg>

<svg width="58" height="58" viewBox="0 0 58 58" fill="none" xmlns="http://www.w3.org/2000/svg">
<g opacity="0.3" filter="url(#filter0_d_28528_601)">
<circle cx="29" cy="25" r="24" stroke="black" stroke-width="2" shape-rendering="crispEdges"/>
</g>
<g opacity="0.3" clip-path="url(#clip0_28528_601)">
<path d="M37 24H30V17H28V24H21V26H28V33H30V26H37V24Z" fill="black"/>
</g>
<defs>
<filter id="filter0_d_28528_601" x="0" y="0" width="58" height="58" filterUnits="userSpaceOnUse" color-interpolation-filters="sRGB">
<feFlood flood-opacity="0" result="BackgroundImageFix"/>
<feColorMatrix in="SourceAlpha" type="matrix" values="0 0 0 0 0 0 0 0 0 0 0 0 0 0 0 0 0 0 127 0" result="hardAlpha"/>
<feOffset dy="4"/>
<feGaussianBlur stdDeviation="2"/>
<feComposite in2="hardAlpha" operator="out"/>
<feColorMatrix type="matrix" values="0 0 0 0 0 0 0 0 0 0 0 0 0 0 0 0 0 0 0.25 0"/>
<feBlend mode="normal" in2="BackgroundImageFix" result="effect1_dropShadow_28528_601"/>
<feBlend mode="normal" in="SourceGraphic" in2="effect1_dropShadow_28528_601" result="shape"/>
</filter>
<clipPath id="clip0_28528_601">
<rect width="16" height="16" fill="white" transform="translate(21 17)"/>
</clipPath>
</defs>
</svg>
